X: 4
T: Ar Éirinn Ní Neosfainn Cé Hí
R: waltz
M: 3/4
L: 1/8
K: Gmaj
|:GA | "G"B2D3D|"Am7"E2G3A|"G"B6-|B4GA|B2D3D|
"Em"E2G3B|"D"A6-|A4GA|"G"B2D3D|"C"E2c3A|
"G"B6-|B4 BA |"C"G2 E3"D"D |E2 "C"G3A"D" |G2"G"G4-|G4Bc|
"G"d4 BA|G3Bd2|"C"e6|"Em"e4 ge|
"G"d4 BA|"Em"G3A BG|"D"A6-|A4 GA|"G"B2D3D|
"C"E2c3A|"G"B6-|B4 BA|"C"G2"D"E3D|"Am7"EG3"D"A2|"G"G6-|G4:|


Tune 1039	Setting 14269

